icons/svg/microphone-off.svg

﻿<?xml version="1.0" encoding="utf-8"?>
<!DOCTYPE svg PUBLIC "-//W3C//DTD SVG 1.1//EN" "http://www.w3.org/Graphics/SVG/1.1/DTD/svg11.dtd">
<svg xmlns="http://www.w3.org/2000/svg" xmlns:xlink="http://www.w3.org/1999/xlink" version="1.1" baseProfile="full" width="24" height="24" viewBox="0 0 24.00 24.00" enable-background="new 0 0 24.00 24.00" xml:space="preserve">
	<path fill="#000000" fill-opacity="1" stroke-width="0.2" stroke-linejoin="round" d="M 19.0001,10.9995C 19.0001,12.1895 18.6641,13.3045 18.0951,14.2765L 16.8661,13.0475C 17.1431,12.4325 17.3001,11.7435 17.3001,10.9995L 19.0001,10.9995 Z M 14.9835,11.1648L 9.0015,5.18282L 9.0015,4.9998C 9.0015,3.3418 10.3435,1.9998 12.0005,1.9998C 13.6555,1.9998 15.0005,3.3418 15.0005,4.9998L 15.0005,10.9998L 14.9835,11.1648 Z M 4.27299,3L 21,19.727L 19.727,21L 15.541,16.813C 14.766,17.267 13.906,17.583 13,17.717L 13,21L 11,21L 11,17.717C 7.72099,17.233 5,14.414 5,11L 6.70101,11C 6.70101,14 9.238,16.099 12,16.099C 12.81,16.099 13.598,15.914 14.311,15.583L 12.651,13.924L 12,14C 10.344,14 9.00999,12.656 9.00999,11L 9.00899,10.281L 3,4.27299L 4.27299,3 Z "/>
</svg>

<svg xmlns="http://www.w3.org/2000/svg" version="1.1" baseProfile="full" width="24" height="24" viewBox="0 0 24.00 24.00" xml:space="preserve"><path fill="#000" fill-opacity="1" stroke-width=".2" stroke-linejoin="round" d="M19 11c0 1.19-.336 2.305-.905 3.277l-1.23-1.23c.278-.615.435-1.304.435-2.048H19zm-4.017.165L9.002 5.183 9.004 5c0-1.658 1.34-3 2.998-3 1.655 0 3 1.342 3 3v6l-.017.165zM4.273 3L21 19.727 19.727 21l-4.186-4.187c-.774.454-1.634.77-2.54.904V21h-2v-3.283C7.72 17.233 5 14.414 5 11h1.7c0 3 2.538 5.1 5.3 5.1.81 0 1.598-.186 2.31-.517l-1.66-1.66L12 14c-1.656 0-2.99-1.344-2.99-3v-.72L3 4.274 4.273 3z"/></svg>
